X: 3263
T: Beinsin Luachra
R: barndance
M: 4/4
K: Dmajor
d>e|f>g f3e d>c|A2 A<G ABcd|e2 cd/e/ d>c A<G|A5 de|
fgag f>e d>c|A4 A>B c<A|G3E E3D|D4 z2 A2|
A>B c<A G>F GA|A3A d3e|f3e d>c A<G|A5 de|
f<a g>f e<f (d2|d3)c A4|A>B c<A G3E|ED D4||

